X: 03046
T: JOANIE'S JIG
C: Bob McQuillen 30 Dec 76
B: Bob's Note Book 03 #46
R: jig
%D:1976
Z: 2020 John Chambers <jc:trillian.mit.edu>
M: 6/8
L: 1/8
K: D
DE \
| FGF EFE | DA,A, DFG | AFA dcB | A3- A FA |\
| BGB AFA | GEG FGA | B2A G2F | FED EDE |
| FGF EFE | DA,A, DFG | AFA dcd | e3- e de |\
| fdd e2c | dcB AFA | Bcd edc | c3- c |]
|| de \
| fdd edd | fdd efe | dcd Bcd | A3- A FG |\
| Bdd Add | GAB AFA | BGB AFD | E3- E2 A |
| fdd edd | fdd efe | dcd Bcd | A3- A FG |\
| BGB c2c | dcd e2g | fed edc | d3- d |]
%%begintext align
%% With love to Joanie Pelton,
%% one of New Youk's finest (MUSICIANS,
%% that is!)
%%endtext

%%sep 1 1 500

%%sep 1 1 500

